X: 245
T: The Scartaglen
R: reel
M: C|
L: 1/8
K: Dmaj
DFEF D2dB|cAAG EFFE|DFEF D2dB|cAGE EDD2|
DFEF D2dB|cAAG EFGE|Addc dfed|cAGE EDD2:|
|:f3e fage|f2ge afde|effe fage|
fdec Add2|f2fe fage|fdge afge|
fage dfed|1 dcAG EDD2:|2 dcAG EFFE|| 

